src/parts/mouth/Twinkle.svg

<svg>
  <g transform="translate(76.000000, 82.000000)">
    <g
      id="Mouth/Twinkle"
      transform="translate(2.000000, 52.000000)"
      opacity="0.599999964"
      fillRule="nonzero"
      fill="#000000"
    >
      <path
        id="Mouth"
        d="M40,16 C40,21.371763 46.1581544,25 54,25 C61.8418456,25 68,21.371763 68,16 C68,14.8954305 67.050301,14 66,14 C64.7072748,14 64.1302316,14.9051755 64,16 C62.7575758,18.9378973 59.6832595,20.7163149 54,21 C48.3167405,20.7163149 45.2424242,18.9378973 44,16 C43.8697684,14.9051755 43.2927252,14 42,14 C40.949699,14 40,14.8954305 40,16 Z"
      />
    </g>
  </g>
</svg>

<svg>
  <g transform="translate(76 82)">
    <g id="Mouth/Twinkle" fill="#000" opacity=".6" transform="translate(2 52)">
      <path id="Mouth" d="M40 16c0 5.372 6.158 9 14 9s14-3.628 14-9c0-1.105-.95-2-2-2-1.293 0-1.87.905-2 2-1.242 2.938-4.317 4.716-10 5-5.683-.284-8.758-2.062-10-5-.13-1.095-.707-2-2-2-1.05 0-2 .895-2 2Z"/>
    </g>
  </g>
</svg>
